X: 053
M: 6/8
L: 1/8
K: Gdor
d2c |\
|: d2!f!c |\
!+!B2A GAB | !+!F3 A2B | c2B ABG | A2D BAG |\
cBA dcB | _edc f_ed | gab dg^f | g3 :|

